Gurmukhi/0A28.svg

<svg enable-background="new 0 0 336 592" viewBox="0 0 336 592" xmlns="http://www.w3.org/2000/svg"><path d="m203.083954 268.837158c17.791305 10.93277 33.71347 23.418396 44.775955 41.094361 8.300125 13.262146 12.215378 27.56192 9.697891 43.341278-2.688476 16.850982-12.401764 27.6427-28.288208 32.960785-8.724945 2.920684-17.827713 4.105041-27.052475 3.854766-5.659317-.153503-7.514343-2.079589-7.573562-7.588592-.051956-4.832367.122436-9.669983-.039139-14.497376-.108795-3.250122 1.206329-4.383392 4.399704-4.378326 7.37471.011749 14.584274-1.165802 21.516876-3.797577 13.52948-5.136139 19.207687-16.492828 15.190353-30.433807-2.463211-8.547821-7.506393-15.569764-13.384246-22.011505-10.114289-11.084595-22.04538-19.751679-35.589692-26.224396-2.046447-.977967-3.946502-1.512055-6.19519-.705231-19.890472 7.136444-37.753906 17.469849-52.210358 33.136078-3.975341 4.307983-7.280227 9.121246-9.409111 14.635956-5.577278 14.447601.848534 27.826874 15.639794 32.436249 6.386932 1.990387 12.966919 3.0997 19.664413 2.945892 4.728363-.108551 6.767182 2.431213 6.957062 6.620605.241196 5.321991.025925 10.66333.082458 15.995545.026307 2.482086-1.125869 3.832763-3.556945 3.785766-19.160614-.370361-37.203316-3.693878-50.355385-19.539978-13.606117-16.393188-16.0718-42.138549-6.0373-61.065796 10.522232-19.847259 27.491379-32.651763 46.718048-42.97174 4.685928-2.515167 9.524002-4.877777 14.531967-6.621918 4.264862-1.485321 5.411652-3.93959 5.286407-8.192306-.274627-9.324448-.338241-18.673371.035553-27.991318.201188-5.014984-1.28804-6.6176-6.424453-6.564331-24.329132.25238-48.663658-.014664-72.992745.239746-4.94825.051727-7.788986-1.272644-9.055366-6.193695-.865868-3.364746-2.486092-6.529068-3.649582-9.82518-1.325737-3.755814.161903-5.776535 4.069412-6.059525 1.493691-.108169 2.99633-.128265 4.494896-.128342 60.162605-.002563 120.325539.090928 180.487282-.135498 5.891327-.022186 8.981689 1.793808 10.337128 7.375184.662994 2.730056 2.012298 5.286544 2.928527 7.963485 1.679016 4.905518.337098 6.752609-4.974243 6.85759-3.331695.065857-6.665954-.001419-9.999054.000198-21.165222.010239-42.332138.171067-63.494446-.071945-5.117797-.058761-6.58525 1.546936-6.412826 6.57544.365311 10.65335.49176 21.347503-.046494 31.986343-.299453 5.918823 1.676712 9.487244 6.985688 11.569061.921112.361176 1.746811.965607 2.941406 1.624054z"/></svg>

<svg version="1.1" id="Layer_1" xmlns="http://www.w3.org/2000/svg" xmlns:xlink="http://www.w3.org/1999/xlink" x="0px" y="0px"
	 width="100%" viewBox="0 0 336 592" enable-background="new 0 0 336 592" xml:space="preserve">
<path fill="#000000" opacity="1.000000" stroke="none" 
	d="
M203.083954,268.837158 
	C220.875259,279.769928 236.797424,292.255554 247.859909,309.931519 
	C256.160034,323.193665 260.075287,337.493439 257.557800,353.272797 
	C254.869324,370.123779 245.156036,380.915497 229.269592,386.233582 
	C220.544647,389.154266 211.441879,390.338623 202.217117,390.088348 
	C196.557800,389.934845 194.702774,388.008759 194.643555,382.499756 
	C194.591599,377.667389 194.765991,372.829773 194.604416,368.002380 
	C194.495621,364.752258 195.810745,363.618988 199.004120,363.624054 
	C206.378830,363.635803 213.588394,362.458252 220.520996,359.826477 
	C234.050476,354.690338 239.728683,343.333649 235.711349,329.392670 
	C233.248138,320.844849 228.204956,313.822906 222.327103,307.381165 
	C212.212814,296.296570 200.281723,287.629486 186.737411,281.156769 
	C184.690964,280.178802 182.790909,279.644714 180.542221,280.451538 
	C160.651749,287.587982 142.788315,297.921387 128.331863,313.587616 
	C124.356522,317.895599 121.051636,322.708862 118.922752,328.223572 
	C113.345474,342.671173 119.771286,356.050446 134.562546,360.659821 
	C140.949478,362.650208 147.529465,363.759521 154.226959,363.605713 
	C158.955322,363.497162 160.994141,366.036926 161.184021,370.226318 
	C161.425217,375.548309 161.209946,380.889648 161.266479,386.221863 
	C161.292786,388.703949 160.140610,390.054626 157.709534,390.007629 
	C138.548920,389.637268 120.506218,386.313751 107.354149,370.467651 
	C93.748032,354.074463 91.282349,328.329102 101.316849,309.401855 
	C111.839081,289.554596 128.808228,276.750092 148.034897,266.430115 
	C152.720825,263.914948 157.558899,261.552338 162.566864,259.808197 
	C166.831726,258.322876 167.978516,255.868607 167.853271,251.615891 
	C167.578644,242.291443 167.515030,232.942520 167.888824,223.624573 
	C168.090012,218.609589 166.600784,217.006973 161.464371,217.060242 
	C137.135239,217.312622 112.800713,217.045578 88.471626,217.299988 
	C83.523376,217.351715 80.682640,216.027344 79.416260,211.106293 
	C78.550392,207.741547 76.930168,204.577225 75.766678,201.281113 
	C74.440941,197.525299 75.928581,195.504578 79.836090,195.221588 
	C81.329781,195.113419 82.832420,195.093323 84.330986,195.093246 
	C144.493591,195.090683 204.656525,195.184174 264.818268,194.957748 
	C270.709595,194.935562 273.799957,196.751556 275.155396,202.332932 
	C275.818390,205.062988 277.167694,207.619476 278.083923,210.296417 
	C279.762939,215.201935 278.421021,217.049026 273.109680,217.154007 
	C269.777985,217.219864 266.443726,217.152588 263.110626,217.154205 
	C241.945404,217.164444 220.778488,217.325272 199.616180,217.082260 
	C194.498383,217.023499 193.030930,218.629196 193.203354,223.657700 
	C193.568665,234.311050 193.695114,245.005203 193.156860,255.644043 
	C192.857407,261.562866 194.833572,265.131287 200.142548,267.213104 
	C201.063660,267.574280 201.889359,268.178711 203.083954,268.837158 
z"/>
</svg>
